svg/scale_bathroom.svg

<svg xmlns="http://www.w3.org/2000/svg" viewBox="0 0 24 24"><path d="M5 2h14a2 2 0 0 1 2 2v16a2 2 0 0 1-2 2H5a2 2 0 0 1-2-2V4a2 2 0 0 1 2-2m7 2a4 4 0 0 0-4 4h3.26l-.41-2.77L12.9 8H16a4 4 0 0 0-4-4m-7 6v10h14V10z"/></svg>

<?xml version="1.0" encoding="UTF-8"?><!DOCTYPE svg PUBLIC "-//W3C//DTD SVG 1.1//EN" "http://www.w3.org/Graphics/SVG/1.1/DTD/svg11.dtd"><svg xmlns="http://www.w3.org/2000/svg" xmlns:xlink="http://www.w3.org/1999/xlink" version="1.1" id="mdi-scale-bathroom" width="24" height="24" viewBox="0 0 24 24"><path d="M5,2H19A2,2 0 0,1 21,4V20A2,2 0 0,1 19,22H5A2,2 0 0,1 3,20V4A2,2 0 0,1 5,2M12,4A4,4 0 0,0 8,8H11.26L10.85,5.23L12.9,8H16A4,4 0 0,0 12,4M5,10V20H19V10H5Z" /></svg>
